X:1     %Music
T:Andrew Lammie [Mill o' Tifty's Annie]
B:Palmer, R, 1998, A Book of British Ballads, Llanerch Press
S:Sheila MacGregor, Blairgowrie, 1974
Z:Hamish Henderson
F:http://folkinfo.org/songs
M:3/4     %Meter
L:1/8     %
K:G
B,/B,/ G F |E3 B,DE |B,4 G3/2A/ |BB B3 E | G(AA2)
w:At the Mill o' Tif-ty's lived a man, In the neigh-bour-hood o' Fy-vie,*
 GA |BB B3 (A/B/) |GF E3 G/F/ |ED B,2 (A,3/2B,/) | D(EE)  |]
w:For he had a love-ly_ daught-er fair, An' they ca'ed her bon-ny * An-nie *